src/lib/packages/icons/src/assets/line/laptop-code.svg

<svg width="24" height="24" viewBox="0 0 24 24" fill="none" xmlns="http://www.w3.org/2000/svg">
<path d="M21 15.25H20.75V7C20.75 4.582 19.418 3.25 17 3.25H7C4.582 3.25 3.25 4.582 3.25 7V15.25H3C2.586 15.25 2.25 15.586 2.25 16V17C2.25 18.748 3.252 19.75 5 19.75H19C20.748 19.75 21.75 18.748 21.75 17V16C21.75 15.586 21.414 15.25 21 15.25ZM4.75 7C4.75 5.423 5.423 4.75 7 4.75H17C18.577 4.75 19.25 5.423 19.25 7V15.25H4.75V7ZM20.25 17C20.25 17.923 19.923 18.25 19 18.25H5C4.077 18.25 3.75 17.923 3.75 17V16.75H20.25V17ZM10.53 8.53003L9.06006 10L10.53 11.47C10.823 11.763 10.823 12.238 10.53 12.531C10.384 12.677 10.192 12.751 10 12.751C9.808 12.751 9.61597 12.678 9.46997 12.531L7.46997 10.531C7.17697 10.238 7.17697 9.76297 7.46997 9.46997L9.46997 7.46997C9.76297 7.17697 10.238 7.17697 10.531 7.46997C10.824 7.76297 10.823 8.23703 10.53 8.53003ZM16.53 9.46997C16.823 9.76297 16.823 10.238 16.53 10.531L14.53 12.531C14.384 12.677 14.192 12.751 14 12.751C13.808 12.751 13.616 12.678 13.47 12.531C13.177 12.238 13.177 11.763 13.47 11.47L14.9399 10L13.47 8.53003C13.177 8.23703 13.177 7.76199 13.47 7.46899C13.763 7.17599 14.238 7.17599 14.531 7.46899L16.53 9.46997Z" fill="currentColor"/>
</svg>

<svg xmlns="http://www.w3.org/2000/svg" width="24" height="24" fill="none"><path fill="currentColor" d="M21 15.25h-.25V7c0-2.418-1.332-3.75-3.75-3.75H7C4.582 3.25 3.25 4.582 3.25 7v8.25H3a.75.75 0 0 0-.75.75v1c0 1.748 1.002 2.75 2.75 2.75h14c1.748 0 2.75-1.002 2.75-2.75v-1a.75.75 0 0 0-.75-.75ZM4.75 7c0-1.577.673-2.25 2.25-2.25h10c1.577 0 2.25.673 2.25 2.25v8.25H4.75V7Zm15.5 10c0 .923-.327 1.25-1.25 1.25H5c-.923 0-1.25-.327-1.25-1.25v-.25h16.5V17Zm-9.72-8.47L9.06 10l1.47 1.47a.75.75 0 0 1-1.06 1.061l-2-2a.75.75 0 0 1 0-1.061l2-2a.75.75 0 1 1 1.06 1.06Zm6 .94a.75.75 0 0 1 0 1.061l-2 2a.748.748 0 0 1-1.06 0 .75.75 0 0 1 0-1.061L14.94 10l-1.47-1.47a.75.75 0 0 1 1.061-1.061L16.53 9.47Z"/></svg>
